X:2995
T:Lady of Foelay
M:6/8
O:Wales
R:Jig
Z:Richard Robinson 
%%TUNEURL: http://www.leeds.ac.uk/music/Info/RRTuneBk/gettune/00000db3.html
%%ID:00000db3
K:D
FGA AFA | BGB A3 | Bcd efg | fed cBA |\
FGA AFA | BGB A3 | Bcd efg | edc d3 :|
afa afa | geg geg | fag fed | ced cBA |\
afa afa | geg geg | fed cde | d3 d3 :|
